X: 6288
T: Caroline's Favourite
R: jig
M: 6/8
K: Gmajor
|:B2B BAG|AGE DB,D|B2B BAB|d^cd ed=c|
BcB BAG|AGE DB,D|EDB, G,B,D|EGG G2D:|
|:GBd dBd|ece gfe|ded BdB|ABA AFD|
GBd dBd|ece gfe|dBG AGA|BGG G2D:|

